images/build/build-types/04.svg

<svg width="164" height="93" viewBox="0 0 164 93" fill="none" xmlns="http://www.w3.org/2000/svg">
<path opacity="0.1" d="M69.1655 88.3495C62.1655 97.5895 52.4122 102.21 39.9055 102.21C27.3988 102.21 17.5988 97.5895 10.5055 88.3495C3.5055 79.0162 0.00549638 66.6495 0.00549638 51.2495C0.00549638 35.8495 3.5055 23.5295 10.5055 14.2895C17.5988 4.95617 27.3988 0.289505 39.9055 0.289505C52.4122 0.289505 62.1655 4.95617 69.1655 14.2895C76.2588 23.5295 79.8055 35.8495 79.8055 51.2495C79.8055 66.6495 76.2588 79.0162 69.1655 88.3495ZM22.4055 51.2495C22.4055 70.6628 28.2388 80.3695 39.9055 80.3695C51.5722 80.3695 57.4055 70.6628 57.4055 51.2495C57.4055 31.8362 51.5722 22.1295 39.9055 22.1295C28.2388 22.1295 22.4055 31.8362 22.4055 51.2495ZM163.789 63.8495V84.5695H153.989V100.25H131.309V84.5695H86.7891V63.8495L118.009 2.24951H142.089L110.869 63.8495H131.309V42.8495H153.989V63.8495H163.789Z" fill="#CB8734"/>
</svg>

<svg width="164" height="93" fill="none" xmlns="http://www.w3.org/2000/svg"><path opacity=".1" d="M69.165 88.35c-7 9.24-16.753 13.86-29.26 13.86-12.506 0-22.306-4.62-29.4-13.86-7-9.334-10.5-21.7-10.5-37.1 0-15.4 3.5-27.72 10.5-36.96C17.6 4.956 27.4.29 39.905.29c12.507 0 22.26 4.666 29.26 14 7.094 9.24 10.64 21.56 10.64 36.96 0 15.4-3.546 27.766-10.64 37.1zm-46.76-37.1c0 19.413 5.834 29.12 17.5 29.12 11.667 0 17.5-9.707 17.5-29.12 0-19.414-5.833-29.12-17.5-29.12-11.666 0-17.5 9.706-17.5 29.12zm141.384 12.6v20.72h-9.8v15.68h-22.68V84.57h-44.52V63.85l31.22-61.6h24.08l-31.22 61.6h20.44v-21h22.68v21h9.8z" fill="#CB8734"/></svg>
